svg/percent_box.svg

<svg xmlns="http://www.w3.org/2000/svg" viewBox="0 0 24 24"><path d="M19 3H5c-1.11 0-2 .89-2 2v14a2 2 0 0 0 2 2h14c1.11 0 2-.89 2-2V5a2 2 0 0 0-2-2M8.83 7.05c.98 0 1.77.79 1.77 1.78 0 .98-.79 1.77-1.77 1.77-.99 0-1.78-.79-1.78-1.77 0-.99.79-1.78 1.78-1.78M15.22 17c-.98 0-1.77-.8-1.77-1.78s.79-1.77 1.77-1.77 1.78.79 1.78 1.77S16.2 17 15.22 17m-6.72.03L7 15.53 15.53 7l1.5 1.5z"/></svg>

<svg xmlns="http://www.w3.org/2000/svg" id="mdi-percent-box" viewBox="0 0 24 24"><path d="M19 3H5C3.89 3 3 3.89 3 5V19C3 20.11 3.9 21 5 21H19C20.11 21 21 20.11 21 19V5C21 3.89 20.1 3 19 3M8.83 7.05C9.81 7.05 10.6 7.84 10.6 8.83C10.6 9.81 9.81 10.6 8.83 10.6C7.84 10.6 7.05 9.81 7.05 8.83C7.05 7.84 7.84 7.05 8.83 7.05M15.22 17C14.24 17 13.45 16.2 13.45 15.22C13.45 14.24 14.24 13.45 15.22 13.45C16.2 13.45 17 14.24 17 15.22C17 16.2 16.2 17 15.22 17M8.5 17.03L7 15.53L15.53 7L17.03 8.5L8.5 17.03Z" /></svg>
